raw-svg/hashtag.svg

<svg viewBox="0 0 24 24" xmlns="http://www.w3.org/2000/svg"><path d="m21 7.25h-3l.77-3.07a.75.75 0 0 0 -1.46-.36l-.86 3.43h-6.45l.77-3.07a.75.75 0 0 0 -1.46-.36l-.9 3.43h-3.41a.75.75 0 0 0 0 1.5h3l-1.63 6.5h-3.37a.75.75 0 0 0 0 1.5h3l-.77 3.07a.75.75 0 0 0 1.46.36l.86-3.43h6.45l-.77 3.07a.75.75 0 0 0 1.46.36l.86-3.43h3.45a.75.75 0 0 0 0-1.5h-3l1.63-6.5h3.37a.75.75 0 0 0 0-1.5zm-5 1.5-1.63 6.5h-6.37l1.63-6.5z"/></svg>

<svg xmlns="http://www.w3.org/2000/svg" viewBox="0 0 24 24"><g id="hashtag"><path d="M21,7.25H18l.77-3.07a.75.75,0,0,0-1.46-.36l-.86,3.43H10l.77-3.07a.75.75,0,0,0-1.46-.36L8.41,7.25H5a.75.75,0,0,0,0,1.5H8l-1.63,6.5H3a.75.75,0,0,0,0,1.5H6l-.77,3.07a.75.75,0,0,0,1.46.36l.86-3.43H14l-.77,3.07a.75.75,0,0,0,1.46.36l.86-3.43H19a.75.75,0,0,0,0-1.5H16l1.63-6.5H21A.75.75,0,0,0,21,7.25Zm-5,1.5-1.63,6.5H8l1.63-6.5Z"/></g></svg>
